X:3
T:score1
L:1/8
Q:1/4=96
M:3/4
I:linebreak $
K:Eb
 (B2 de f2) | (B2 ef g2) | (B2 fg a2 | b4) (bb |$ b2 c'b a2) | (a2 ba g2) | (g2 ag f2 | e6) |] %8
